X: 10673
M: 6/8
L: 1/8
K: D
f2e dcB | A2F D2E | FGF FED | F3 E2A |\
f2e dcB | A2F D2E | FGF EDE | D3 z2 :|
|: A |\
g2e f2d | c2d ecA | g2e f2d | cec A2A |\
g2e f2d | cde fga | ece dcB | ABc ddd :|


